scalable/apps/xfce4-weather.svg

<?xml version="1.0" encoding="UTF-8" standalone="no"?>
<!-- Generator: Adobe Illustrator 19.0.0, SVG Export Plug-In . SVG Version: 6.00 Build 0)  -->

<svg
   xmlns:dc="http://purl.org/dc/elements/1.1/"
   xmlns:cc="http://creativecommons.org/ns#"
   xmlns:rdf="http://www.w3.org/1999/02/22-rdf-syntax-ns#"
   xmlns:svg="http://www.w3.org/2000/svg"
   xmlns="http://www.w3.org/2000/svg"
   xmlns:xlink="http://www.w3.org/1999/xlink"
   xmlns:sodipodi="http://sodipodi.sourceforge.net/DTD/sodipodi-0.dtd"
   xmlns:inkscape="http://www.inkscape.org/namespaces/inkscape"
   version="1.1"
   id="Capa_1"
   x="0px"
   y="0px"
   viewBox="0 0 48 48"
   xml:space="preserve"
   sodipodi:docname="xfce4-weather.svg"
   width="48"
   height="48"
   inkscape:version="0.92.3 (2405546, 2018-03-11)"><metadata
   id="metadata41"><rdf:RDF><cc:Work
       rdf:about=""><dc:format>image/svg+xml</dc:format><dc:type
         rdf:resource="http://purl.org/dc/dcmitype/StillImage" /><dc:title /></cc:Work></rdf:RDF></metadata><defs
   id="defs39"><linearGradient
     inkscape:collect="always"
     id="linearGradient1065"><stop
       style="stop-color:#000000;stop-opacity:1;"
       offset="0"
       id="stop1061" /><stop
       style="stop-color:#000000;stop-opacity:0;"
       offset="1"
       id="stop1063" /></linearGradient><linearGradient
     inkscape:collect="always"
     id="linearGradient1001"><stop
       style="stop-color:#000000;stop-opacity:1;"
       offset="0"
       id="stop997" /><stop
       style="stop-color:#000000;stop-opacity:0;"
       offset="1"
       id="stop999" /></linearGradient><linearGradient
     inkscape:collect="always"
     xlink:href="#linearGradient1001"
     id="linearGradient1023"
     gradientUnits="userSpaceOnUse"
     x1="15.367735"
     y1="10.656576"
     x2="42.982841"
     y2="26.2299" /><linearGradient
     inkscape:collect="always"
     xlink:href="#linearGradient1001"
     id="linearGradient1053"
     gradientUnits="userSpaceOnUse"
     x1="14.870588"
     y1="15.294117"
     x2="51.105885"
     y2="24.988235" /><linearGradient
     inkscape:collect="always"
     xlink:href="#linearGradient1065"
     id="linearGradient1087"
     gradientUnits="userSpaceOnUse"
     x1="15.678654"
     y1="22.154409"
     x2="37.528973"
     y2="31.283821" /></defs><sodipodi:namedview
   pagecolor="#ffffff"
   bordercolor="#666666"
   borderopacity="1"
   objecttolerance="10"
   gridtolerance="10"
   guidetolerance="10"
   inkscape:pageopacity="0"
   inkscape:pageshadow="2"
   inkscape:window-width="1366"
   inkscape:window-height="719"
   id="namedview37"
   showgrid="false"
   showguides="true"
   inkscape:guide-bbox="true"
   inkscape:zoom="5.3125"
   inkscape:cx="24"
   inkscape:cy="24"
   inkscape:window-x="0"
   inkscape:window-y="25"
   inkscape:window-maximized="1"
   inkscape:current-layer="Capa_1" />


<g
   id="g6"
   transform="translate(0,-464)">
</g>
<g
   id="g8"
   transform="translate(0,-464)">
</g>
<g
   id="g10"
   transform="translate(0,-464)">
</g>
<g
   id="g12"
   transform="translate(0,-464)">
</g>
<g
   id="g14"
   transform="translate(0,-464)">
</g>
<g
   id="g16"
   transform="translate(0,-464)">
</g>
<g
   id="g18"
   transform="translate(0,-464)">
</g>
<g
   id="g20"
   transform="translate(0,-464)">
</g>
<g
   id="g22"
   transform="translate(0,-464)">
</g>
<g
   id="g24"
   transform="translate(0,-464)">
</g>
<g
   id="g26"
   transform="translate(0,-464)">
</g>
<g
   id="g28"
   transform="translate(0,-464)">
</g>
<g
   id="g30"
   transform="translate(0,-464)">
</g>
<g
   id="g32"
   transform="translate(0,-464)">
</g>
<g
   id="g34"
   transform="translate(0,-464)">
</g>
<g
   id="g1113"><g
     id="g1096"><path
       style="fill:#217867;stroke-width:0.0924025"
       d="m 24.000976,0.3457035 c -5.833461,0 -10.522198,1.1203776 -13.935546,3.3320313 -4.1011933,2.6574037 -6.2695315,6.9015122 -6.2695315,12.2714832 0,7.226706 5.8062658,16.88549 7.5859375,19.673828 2.031747,3.183082 4.250107,6.079783 6.246093,8.15625 2.542362,2.644284 4.56815,3.875 6.373047,3.875 1.804991,0 3.829009,-1.230625 6.371093,-3.875 1.995894,-2.076376 4.214349,-4.973077 6.246094,-8.15625 C 38.397835,32.8348 44.204101,23.175924 44.204101,15.949219 44.204193,10.57934 42.037899,6.3352307 37.936523,3.6777348 34.523359,1.4660811 29.834346,0.3457035 24.000976,0.3457035 Z"
       id="path925" /><path
       style="fill:url(#linearGradient1053);fill-opacity:1;stroke:none;stroke-width:1px;stroke-linecap:butt;stroke-linejoin:miter;stroke-opacity:1;opacity:0.5"
       d="m 27.949219,45.830078 c 0.775498,-0.586966 1.532312,-1.125424 2.421875,-2.050781 1.995894,-2.076377 4.214348,-4.973078 6.246094,-8.15625 0.889835,-1.394123 2.786911,-4.505287 4.460937,-8.171875 C 41.812301,25.84312 42.455083,24.112058 43,22.388672 L 28.046875,7.4355469 27.105469,33.035156 l -8.09375,3.859375 z"
       id="path1025"
       inkscape:connector-curvature="0" /><path
       style="fill:#ffffff;stroke-width:0.09843811"
       d="m 24.00104,5.69043 c 3.002586,0 5.43687,2.4342839 5.43687,5.436871 V 24.0755 c 1.668409,1.4932 2.717395,3.664573 2.717395,6.079805 0,4.503943 -3.650386,8.154265 -8.154265,8.154265 -4.50388,0 -8.156345,-3.650322 -8.156345,-8.154265 0,-2.415232 1.051067,-4.586541 2.719475,-6.079805 V 11.1273 c 1e-6,-3.0025861 2.434284,-5.43687 5.43687,-5.43687 z"
       id="path923"
       inkscape:connector-curvature="0" /><path
       style="fill:url(#linearGradient1023);fill-opacity:1;stroke:none;stroke-width:1px;stroke-linecap:butt;stroke-linejoin:miter;stroke-opacity:1;opacity:0.5"
       d="m 24.550781,38.197266 c 0.914884,-0.06419 1.818152,-0.188066 2.625,-0.529297 0.975582,-0.412592 1.854006,-1.008307 2.591797,-1.746094 0.737791,-0.737787 1.333497,-1.616212 1.746094,-2.591797 0.412597,-0.975585 0.642578,-2.047842 0.642578,-3.173828 0,-1.207616 -0.263577,-2.355321 -0.734375,-3.386719 C 30.951077,25.738134 30.271704,24.822772 29.4375,24.076172 V 12.683594 L 25.789062,9.0351562 21.175781,34.824219 Z"
       id="path995"
       inkscape:connector-curvature="0" /><path
       style="fill:#e9afaf;stroke-width:0.09843811"
       d="m 24,8.407825 c -1.501294,0 -2.719476,1.2181807 -2.719476,2.719475 V 25.290628 L 20.375417,26.1021 c -1.147693,1.027217 -1.812288,2.483548 -1.812288,4.053204 1e-6,3.002588 2.434284,5.43687 5.436871,5.43687 3.002586,0 5.436742,-2.434282 5.43687,-5.43687 0,-1.569721 -0.666675,-3.025987 -1.814371,-4.053204 L 26.717396,25.290628 V 11.1273 C 26.717396,9.6259418 25.501292,8.407825 24,8.407825 Z"
       id="path2"
       inkscape:connector-curvature="0" /><path
       style="fill:url(#linearGradient1087);fill-opacity:1;stroke:none;stroke-width:1px;stroke-linecap:butt;stroke-linejoin:miter;stroke-opacity:1;opacity:0.5"
       d="m 23.902344,35.572266 c 0.03446,6.44e-4 0.06305,0.01953 0.09766,0.01953 0.750647,0 1.464792,-0.152605 2.115234,-0.427735 C 26.765677,34.888933 27.351811,34.491947 27.84375,34 c 0.491939,-0.491947 0.89088,-1.078063 1.166016,-1.728516 0.275135,-0.650452 0.427702,-1.364587 0.427734,-2.115234 0,-0.784861 -0.166432,-1.541785 -0.476562,-2.230469 -0.310131,-0.688684 -0.764043,-1.31061 -1.337891,-1.824219 l -0.90625,-0.810546 v -7.410157 l -1.357422,-1.357421 -1.265625,3.335937 v 9.505859 l -2.070312,4.328125 z"
       id="path1059"
       inkscape:connector-curvature="0" /><path
       inkscape:connector-curvature="0"
       style="fill:#ff2a2a;stroke-width:0.0637113"
       d="m 22.641302,16.524232 v 9.752242 A 4.0775236,4.0775236 0 0 0 19.921827,30.115368 4.0775236,4.0775236 0 0 0 24,34.193541 4.0775236,4.0775236 0 0 0 28.078173,30.115368 4.0775236,4.0775236 0 0 0 25.358698,26.276474 v -9.752242 z"
       id="rect8" /></g><path
     inkscape:connector-curvature="0"
     id="path4588"
     d="m 24.000978,0.345694 c -5.83346,0 -10.522198,1.1203654 -13.935546,3.3320315 -4.1011933,2.6573859 -6.2695325,6.9015305 -6.2695325,12.2714835 0,7.226721 5.806266,16.885493 7.5859385,19.67384 2.031747,3.18308 4.250106,6.079786 6.246093,8.15622 2.542362,2.644309 4.568151,3.875037 6.373047,3.875037 1.804991,0 3.829009,-1.230652 6.371093,-3.875037 1.995894,-2.076359 4.214348,-4.973064 6.246094,-8.15622 C 38.397835,32.834778 44.2041,23.17593 44.2041,15.949209 44.204195,10.579332 42.037898,6.3352248 37.936525,3.6777255 34.523361,1.4660594 29.834347,0.345694 24.000978,0.345694 Z m 0,0.14437795 c 2.112445,0.0850394 4.119293,0.27174804 5.875,0.69142675 1.164035,0.2781733 2.252954,0.6269103 3.263671,1.0429607 1.010718,0.4160504 1.943585,0.9002079 2.796876,1.453115 1.025343,0.6643653 1.929138,1.4277165 2.708983,2.2832126 0.779845,0.855496 1.435774,1.8037039 1.96289,2.8359307 0.527119,1.0322268 0.926199,2.1491903 1.193359,3.3437483 0.267175,1.194557 0.402369,2.466142 0.402346,3.808592 0,1.80669 -0.363402,3.765128 -0.935546,5.730482 -0.572145,1.965316 -1.35244,3.938192 -2.189454,5.77149 -1.674026,3.666557 -3.571101,6.777751 -4.460938,8.171868 -2.031746,3.183155 -4.2502,6.079861 -6.246094,8.15622 -1.271042,1.322192 -2.413501,2.29149 -3.46289,2.929701 -0.319034,0.19389 -0.618451,0.30652 -0.910156,0.390614 -0.291515,-0.08391 -0.589559,-0.196913 -0.908203,-0.390614 -1.049854,-0.638211 -2.191709,-1.607547 -3.46289,-2.929701 -1.995987,-2.076435 -4.214348,-4.97314 -6.246095,-8.15622 C 12.492002,34.228705 10.594926,31.117587 8.9208996,27.450992 8.0838877,25.617732 7.3035914,23.644856 6.7314465,21.67954 6.1593024,19.714186 5.7959004,17.755748 5.7958996,15.949058 c 0,-1.342488 0.1349821,-2.614035 0.402344,-3.808592 C 6.4656074,10.945908 6.8661897,9.8289445 7.3935566,8.7967177 7.9209235,7.7644909 8.5764346,6.816283 9.3564467,5.960787 10.136458,5.1052909 11.040134,4.3419397 12.065431,3.6775744 12.918769,3.1246673 13.851587,2.6405098 14.862306,2.2244594 15.873025,1.808409 16.96196,1.4597476 18.125979,1.1814987 19.881658,0.7617444 21.888518,0.57496014 24.000978,0.49007195 Z"
     style="opacity:0.2;fill:#000000;stroke-width:0.0924025" /></g></svg>

<svg xmlns="http://www.w3.org/2000/svg" xmlns:xlink="http://www.w3.org/1999/xlink" width="48" height="48"><defs><linearGradient id="b"><stop offset="0"/><stop offset="1" stop-opacity="0"/></linearGradient><linearGradient id="a"><stop offset="0"/><stop offset="1" stop-opacity="0"/></linearGradient><linearGradient xlink:href="#a" id="d" gradientUnits="userSpaceOnUse" x1="15.37" y1="10.66" x2="42.98" y2="26.23"/><linearGradient xlink:href="#a" id="c" gradientUnits="userSpaceOnUse" x1="14.87" y1="15.29" x2="51.11" y2="24.99"/><linearGradient xlink:href="#b" id="e" gradientUnits="userSpaceOnUse" x1="15.68" y1="22.15" x2="37.53" y2="31.28"/></defs><path d="M24 .35c-5.83 0-10.52 1.12-13.93 3.33-4.1 2.66-6.27 6.9-6.27 12.27 0 7.23 5.8 16.88 7.58 19.67a54.48 54.48 0 0 0 6.25 8.16c2.54 2.64 4.57 3.87 6.37 3.87 1.8 0 3.83-1.23 6.37-3.87 2-2.08 4.22-4.97 6.25-8.16 1.78-2.79 7.58-12.44 7.58-19.67 0-5.37-2.16-9.61-6.26-12.27C34.52 1.47 29.84.35 24 .35z" fill="#217867"/><path d="M27.95 45.83c.77-.59 1.53-1.13 2.42-2.05 2-2.08 4.22-4.97 6.25-8.16.89-1.4 2.78-4.5 4.46-8.17A44.9 44.9 0 0 0 43 22.4L28.05 7.44l-.94 25.6-8.1 3.85z" fill="url(#c)" opacity=".5"/><path d="M24 5.69c3 0 5.44 2.43 5.44 5.44v12.95a8.15 8.15 0 1 1-10.87 0V11.13c0-3 2.43-5.44 5.43-5.44z" fill="#fff"/><path d="M24.55 38.2a8.21 8.21 0 0 0 2.63-.53 8.16 8.16 0 0 0 2.26-13.6V12.69l-3.65-3.64-4.61 25.78z" fill="url(#d)" opacity=".5"/><path d="M24 8.4a2.72 2.72 0 0 0-2.72 2.73v14.16l-.9.81a5.44 5.44 0 1 0 7.25 0l-.91-.8V11.12c0-1.5-1.22-2.72-2.72-2.72z" fill="#e9afaf"/><path d="M23.9 35.57l.1.02a5.41 5.41 0 0 0 5.44-5.43 5.42 5.42 0 0 0-1.82-4.06l-.9-.8v-7.42l-1.36-1.36-1.27 3.34v9.5l-2.07 4.33z" fill="url(#e)" opacity=".5"/><path d="M22.64 16.52v9.76a4.08 4.08 0 0 0-2.72 3.84A4.08 4.08 0 0 0 24 34.19a4.08 4.08 0 0 0 4.08-4.07 4.08 4.08 0 0 0-2.72-3.84v-9.76z" fill="#ff2a2a"/><path d="M24 .35c-5.83 0-10.52 1.12-13.93 3.33-4.1 2.66-6.27 6.9-6.27 12.27 0 7.23 5.8 16.88 7.58 19.67a54.47 54.47 0 0 0 6.25 8.16c2.54 2.64 4.57 3.87 6.37 3.87 1.8 0 3.83-1.23 6.37-3.87 2-2.08 4.22-4.97 6.25-8.16 1.78-2.79 7.58-12.44 7.58-19.67 0-5.37-2.16-9.61-6.26-12.27C34.52 1.47 29.84.35 24 .35zm0 .14c2.11.09 4.12.27 5.88.7a22 22 0 0 1 3.26 1.03c1.01.42 1.94.9 2.8 1.46A12.92 12.92 0 0 1 40.6 8.8c.53 1.03.92 2.15 1.2 3.34.26 1.2.4 2.47.4 3.8 0 1.82-.37 3.77-.94 5.74a43.19 43.19 0 0 1-2.2 5.77 69.59 69.59 0 0 1-4.45 8.17 54.47 54.47 0 0 1-6.25 8.16 17.98 17.98 0 0 1-3.46 2.93c-.32.2-.62.3-.91.39-.3-.08-.6-.2-.9-.4-1.06-.63-2.2-1.6-3.47-2.92-2-2.08-4.22-4.97-6.25-8.16a69.6 69.6 0 0 1-4.46-8.17 43.18 43.18 0 0 1-2.19-5.77 20.93 20.93 0 0 1-.93-5.73c0-1.34.13-2.61.4-3.81.27-1.2.67-2.31 1.2-3.34a12.92 12.92 0 0 1 4.67-5.12 17.1 17.1 0 0 1 2.8-1.46c1-.41 2.1-.76 3.26-1.04C19.88.76 21.89.58 24 .5z" opacity=".2"/></svg>
